symbols/be/PVA-{20}.svg

<?xml version="1.0" encoding="UTF-8" standalone="no"?>
<!-- Initially created with Inkscape, optimized by hand -->

<svg
   version="1.1"
   width="20"
   height="17.320995"
   id="svg1"
   xmlns="http://www.w3.org/2000/svg"
   xmlns:svg="http://www.w3.org/2000/svg">
  <defs
     id="defs1" />
  <path
     id="Fond"
     d="M 20,-1.2580566e-6 H 3.1098633e-6 L 10.000003,17.320999 Z"
     fill="#edd827"
     style="stroke-width:0.1" />
  <path
     d="m 11.776971,9.2375107 c 0,-0.192001 -0.16,-0.362668 -0.352001,-0.362668 H 9.2169631 l 2.3040079,-3.669345 c 0.192,-0.320001 0.256,-0.576002 0.256,-0.949336 0.02133,-1.06667 -0.789335,-1.738672 -1.770672,-1.781339 -0.7786689,-0.02133 -1.3120039,0.330668 -1.7280049,1.00267 -0.08533,0.149334 -0.128001,0.565335 0.298667,0.597335 0.128001,0 0.234668,-0.04267 0.298668,-0.16 0.277334,-0.490669 0.533335,-0.736003 1.1306699,-0.725336 0.736003,0.01067 1.056004,0.480001 1.06667,1.06667 0,0.224001 -0.032,0.352001 -0.149334,0.565335 l -2.6453409,4.20268 c -0.04267,0.07467 -0.05333,0.128 -0.05333,0.213334 0.01067,0.192001 0.160001,0.341334 0.352001,0.352001 h 2.8480089 c 0.192001,0 0.352001,-0.16 0.352001,-0.352001 z"
     id="text1"
     style="font-size:10.6667px;font-family:Isonorm;-inkscape-font-specification:'Isonorm, Normal';fill-rule:evenodd;stroke-width:0.08"
     aria-label="2" />
</svg>

<?xml version="1.0" encoding="UTF-8"?>
<svg xmlns="http://www.w3.org/2000/svg" xmlns:xlink="http://www.w3.org/1999/xlink" width="20" height="17.320995" viewBox="0 0 20 17.320995">
<path fill-rule="nonzero" fill="rgb(92.941176%, 84.705882%, 15.294118%)" fill-opacity="1" d="M 20 0 L 0 0 L 10 17.320312 Z M 20 0 "/>
<path fill-rule="evenodd" fill="rgb(0%, 0%, 0%)" fill-opacity="1" d="M 11.777344 9.238281 C 11.777344 9.046875 11.617188 8.875 11.425781 8.875 L 9.21875 8.875 L 11.519531 5.207031 C 11.714844 4.886719 11.777344 4.628906 11.777344 4.257812 C 11.796875 3.191406 10.988281 2.515625 10.007812 2.476562 C 9.226562 2.453125 8.695312 2.804688 8.277344 3.476562 C 8.191406 3.625 8.148438 4.042969 8.578125 4.074219 C 8.703125 4.074219 8.8125 4.03125 8.875 3.914062 C 9.152344 3.425781 9.410156 3.179688 10.007812 3.191406 C 10.742188 3.199219 11.0625 3.667969 11.074219 4.257812 C 11.074219 4.480469 11.039062 4.609375 10.921875 4.820312 L 8.277344 9.023438 C 8.234375 9.097656 8.226562 9.152344 8.226562 9.238281 C 8.234375 9.429688 8.386719 9.578125 8.578125 9.589844 L 11.425781 9.589844 C 11.617188 9.589844 11.777344 9.429688 11.777344 9.238281 Z M 11.777344 9.238281 "/>
</svg>
